X:204
T:Dublin Bay
T:We'll Wed and We'll Bed
C:John Young, 1713
S:Colin Hume's website,  colinhume.com  - chords can also be printed below the stave.
Q:3/8=112
M:6/8
L:1/8
K:Cm
P:A
g | "Cm"cdc cdc | "Cm"c3 z2c | "G"ded ded | "G"d3 z2d | "Cm"efe "Bb"fgf | "Eb"g3 z2a |
"Cm"gfg G2g | "Fm"fef F2f | "Cm"ede E2e | "G"dcd D2d |\
"Cm"c=Bc "Bb"dcd | "Eb"ede "Fm"fef | "Cm/G"gcd "G7"=B2c | "Cm"c3 c2d |
P:B
"Gm"B=AG D2d | "Gm"B=AG D2d | "Gm"B=AG "D7"A2G | "G"G3 z2g | "Cm"edc G2g | "Cm"edc G2^f |
| "Cm"gb=a "D7"^f2g | "G"g3 z2^f | "Eb"gb=a "D7"^f2g | "G"g3 z2 |]

